Sources/FrostedUI/Resources/Icons.xcassets/star32.imageset/star-32.svg

<svg width="32" height="32" viewBox="0 0 32 32" fill="none" xmlns="http://www.w3.org/2000/svg" data-fui-icon="true">
  <path
    d="M13.7781 2.77832C14.7557 1.07398 17.2449 1.07392 18.2224 2.77832L18.3152 2.9541L21.5408 9.66992L28.9685 10.6426C31.1031 10.9223 31.9764 13.5568 30.3972 15.0459L24.9724 20.1602L26.3347 27.4668C26.7319 29.5992 24.476 31.2049 22.5916 30.1895L15.9998 26.6367L9.40991 30.1895C7.52547 31.2053 5.26848 29.5996 5.66577 27.4668L7.0271 20.1602L1.60327 15.0459C0.0238053 13.5567 0.897189 10.9221 3.03198 10.6426L10.4587 9.66992L13.6853 2.9541L13.7781 2.77832ZM16.9626 3.60352C16.5756 2.79889 15.4249 2.79895 15.0378 3.60352L11.7087 10.5322C11.553 10.8563 11.2432 11.08 10.8855 11.127L3.22632 12.1299C2.33604 12.2467 1.98046 13.3403 2.63257 13.9551L8.2312 19.2334C8.49376 19.4812 8.61263 19.8452 8.54663 20.1992L7.14038 27.7412C6.98688 28.5646 7.79672 29.2097 8.54858 28.9365L8.698 28.8691L15.4919 25.207C15.8088 25.0364 16.1917 25.0363 16.5085 25.207L23.3025 28.8691C24.042 29.2675 24.9074 28.6995 24.8777 27.9033L24.8601 27.7412L23.4539 20.1992C23.3878 19.8451 23.5066 19.4812 23.7693 19.2334L29.3689 13.9551C29.98 13.3786 29.7047 12.3816 28.9343 12.1631L28.7742 12.1299L21.115 11.127C20.8021 11.086 20.5258 10.9098 20.3572 10.6494L20.2917 10.5322L16.9626 3.60352Z"
    fill="currentColor"
  />
</svg>

<svg xmlns="http://www.w3.org/2000/svg" width="32" height="32" fill="none" data-fui-icon="true" viewBox="0 0 32 32"><path fill="currentColor" d="M13.778 2.778c.978-1.704 3.467-1.704 4.444 0l.093.176 3.226 6.716 7.427.973c2.135.28 3.008 2.914 1.43 4.403l-5.426 5.114 1.363 7.307c.397 2.132-1.859 3.738-3.743 2.723L16 26.636l-6.59 3.552c-1.885 1.016-4.142-.59-3.744-2.722l1.361-7.307-5.424-5.114c-1.58-1.49-.706-4.124 1.429-4.403l7.427-.973 3.226-6.716zm3.185.826c-.387-.805-1.538-.805-1.925 0l-3.33 6.928a1.07 1.07 0 0 1-.822.595l-7.66 1.003c-.89.117-1.246 1.21-.593 1.825l5.598 5.278c.263.248.382.612.316.966L7.14 27.741c-.153.824.657 1.469 1.409 1.195l.149-.067 6.794-3.662c.317-.17.7-.17 1.017 0l6.793 3.662c.74.398 1.605-.17 1.576-.966l-.018-.162-1.406-7.542a1.06 1.06 0 0 1 .315-.966l5.6-5.278c.611-.576.336-1.573-.435-1.792l-.16-.033-7.659-1.003a1.07 1.07 0 0 1-.758-.478l-.065-.117z"/></svg>
